Numix/32/places/red-folder-templates.svg

<?xml version="1.0" encoding="UTF-8" standalone="no"?>
<!-- Created with Inkscape (http://www.inkscape.org/) -->

<svg
   xmlns:dc="http://purl.org/dc/elements/1.1/"
   xmlns:cc="http://creativecommons.org/ns#"
   xmlns:rdf="http://www.w3.org/1999/02/22-rdf-syntax-ns#"
   xmlns:svg="http://www.w3.org/2000/svg"
   xmlns="http://www.w3.org/2000/svg"
   xmlns:xlink="http://www.w3.org/1999/xlink"
   xmlns:sodipodi="http://sodipodi.sourceforge.net/DTD/sodipodi-0.dtd"
   xmlns:inkscape="http://www.inkscape.org/namespaces/inkscape"
   width="32"
   height="32"
   id="svg2"
   version="1.1"
   inkscape:version="0.48.5 r10040"
   sodipodi:docname="folder.svg"
   inkscape:export-filename="/media/Data/Main/Visuals/Icons/Numix/Desktop/repos/numix-wiki/Gjorgi/Numix-folders/48/New/folder-144.png"
   inkscape:export-xdpi="270"
   inkscape:export-ydpi="270">
  <defs
     id="defs4">
    <radialGradient
       inkscape:collect="always"
       xlink:href="#linearGradient3958"
       id="radialGradient3981"
       gradientUnits="userSpaceOnUse"
       gradientTransform="matrix(1,0,0,0.10447761,0,50.597015)"
       cx="32.5"
       cy="56.5"
       fx="32.5"
       fy="56.5"
       r="33.5" />
    <linearGradient
       id="linearGradient3958"
       inkscape:collect="always">
      <stop
         id="stop3960"
         offset="0"
         style="stop-color:#000000;stop-opacity:1;" />
      <stop
         id="stop3962"
         offset="1"
         style="stop-color:#000000;stop-opacity:0;" />
    </linearGradient>
    <radialGradient
       gradientUnits="userSpaceOnUse"
       gradientTransform="matrix(1,0,0,0.10447761,0,50.597015)"
       r="33.5"
       fy="56.5"
       fx="32.5"
       cy="56.5"
       cx="32.5"
       id="radialGradient3964"
       xlink:href="#linearGradient3958"
       inkscape:collect="always" />
    <radialGradient
       inkscape:collect="always"
       xlink:href="#linearGradient3958"
       id="radialGradient3031"
       gradientUnits="userSpaceOnUse"
       gradientTransform="matrix(1,0,0,0.10447761,0,50.597015)"
       cx="32.5"
       cy="56.5"
       fx="32.5"
       fy="56.5"
       r="33.5" />
    <radialGradient
       gradientUnits="userSpaceOnUse"
       gradientTransform="matrix(1,0,0,0.10447761,0,50.597015)"
       r="33.5"
       fy="56.5"
       fx="32.5"
       cy="56.5"
       cx="32.5"
       id="radialGradient3964-6"
       xlink:href="#linearGradient3958-9"
       inkscape:collect="always" />
    <linearGradient
       id="linearGradient3958-9"
       inkscape:collect="always">
      <stop
         id="stop3960-3"
         offset="0"
         style="stop-color:#000000;stop-opacity:1;" />
      <stop
         id="stop3962-7"
         offset="1"
         style="stop-color:#000000;stop-opacity:0;" />
    </linearGradient>
  </defs>
  <sodipodi:namedview
     id="base"
     pagecolor="#ffffff"
     bordercolor="#666666"
     borderopacity="1.0"
     inkscape:pageopacity="0.0"
     inkscape:pageshadow="2"
     inkscape:zoom="18.953468"
     inkscape:cx="17.649317"
     inkscape:cy="13.902804"
     inkscape:document-units="px"
     inkscape:current-layer="layer1"
     showgrid="true"
     inkscape:window-width="1920"
     inkscape:window-height="1052"
     inkscape:window-x="0"
     inkscape:window-y="28"
     inkscape:window-maximized="1"
     showguides="true"
     inkscape:guide-bbox="true">
    <inkscape:grid
       type="xygrid"
       id="grid2985"
       empspacing="5"
       visible="true"
       enabled="true"
       snapvisiblegridlinesonly="true" />
  </sodipodi:namedview>
  <metadata
     id="metadata7">
    <rdf:RDF>
      <cc:Work
         rdf:about="">
        <dc:format>image/svg+xml</dc:format>
        <dc:type
           rdf:resource="http://purl.org/dc/dcmitype/StillImage" />
        <dc:title></dc:title>
      </cc:Work>
    </rdf:RDF>
  </metadata>
  <g
     inkscape:label="Layer 1"
     inkscape:groupmode="layer"
     id="layer1"
     transform="translate(0,-1020.3622)">
    <path
       sodipodi:type="arc"
       style="opacity:0.3;fill:url(#radialGradient3031);fill-opacity:1;stroke:none"
       id="path3956"
       sodipodi:cx="32.5"
       sodipodi:cy="56.5"
       sodipodi:rx="33.5"
       sodipodi:ry="3.5"
       d="M 66,56.5 C 66,58.432997 51.001539,60 32.5,60 13.998461,60 -1,58.432997 -1,56.5 -1,54.567003 13.998461,53 32.5,53 51.001539,53 66,54.567003 66,56.5 z"
       transform="matrix(0.71641791,0,0,0.85714286,-7.2835821,999.9336)" />
    <path
       sodipodi:nodetypes="ccccccccc"
       inkscape:connector-curvature="0"
       id="path3029"
       d="m 0,1024.8916 0,21.4118 32,0 0,-10.7059 -1.523809,-9.1765 -11.976191,-0.059 -1.5,-3 -15.47619,0 C 0.761905,1023.362 0,1024.1267 0,1024.8914 z"
       style="fill:#d32f2f;fill-opacity:1;stroke:none" />
    <rect
       style="fill:#fffdf0;fill-opacity:1;stroke:none"
       id="rect3799"
       width="15.785714"
       height="5.9411421"
       x="2.5000017"
       y="1027.3622" />
    <path
       style="opacity:0.02999998;fill:#000000;fill-opacity:1;stroke:none"
       d="M 1.53125,1023.3622 C 0.769346,1023.3622 0,1024.1288 0,1024.8935 l 0,1 c 0,-0.7647 0.769346,-1.5313 1.53125,-1.5313 l 14.96875,0 1.5,3 12.46875,0.062 1.53125,9.1719 0,-1 -1.53125,-9.1719 -11.96875,-0.062 -1.5,-3 z"
       id="path3790"
       inkscape:connector-curvature="0"
       sodipodi:nodetypes="sscsccccccccs" />
    <path
       style="fill:#ef5350;fill-opacity:1;stroke:none"
       d="m 32,1027.9505 0,21.4117 -32,0 0,-20 15,0 1.5,-3 13.976191,0.059 c 0.761904,0 1.523809,0.7648 1.523809,1.5295 z"
       id="rect2987"
       inkscape:connector-curvature="0"
       sodipodi:nodetypes="cccccccc" />
    <path
       sodipodi:nodetypes="ccccc"
       id="path3794"
       d="m 0,1048.3622 0,1 32,0 0,-1 z"
       style="opacity:0.15;fill:#000000;fill-opacity:1;stroke:none"
       inkscape:connector-curvature="0" />
    <path
       style="opacity:0.02999998;fill:#000000;fill-opacity:1;stroke:none"
       d="m 16.5,1026.3622 -1.5,3 -15,0 0,1 15.5,0 1.5,-3 13.46875,0.062 c 0.761904,0 1.53125,0.7666 1.53125,1.5313 l 0,-1 c 0,-0.7647 -0.769346,-1.5313 -1.53125,-1.5313 z"
       id="path3015"
       inkscape:connector-curvature="0"
       sodipodi:nodetypes="ccccccccscc" />
    <path
       style="opacity:0.50000000000000000;fill:#ab3634;fill-opacity:1;stroke:none"
       d="M 10 12 C 9.446 12 9 12.446 9 13 L 9 14 L 11 14 L 11 12 L 10 12 z M 13 12 L 13 14 L 15 14 L 15 12 L 13 12 z M 17 12 L 17 14 L 19 14 L 19 12 L 17 12 z M 21 12 L 21 14 L 23 14 L 23 13 C 23 12.446 22.554 12 22 12 L 21 12 z M 9 16 L 9 18 L 11 18 L 11 16 L 9 16 z M 21 16 L 21 18 L 23 18 L 23 16 L 21 16 z M 9 20 L 9 22 L 11 22 L 11 20 L 9 20 z M 21 20 L 21 22 L 23 22 L 23 20 L 21 20 z M 9 24 L 9 25 C 9 25.554 9.446 26 10 26 L 11 26 L 11 24 L 9 24 z M 13 24 L 13 26 L 15 26 L 15 24 L 13 24 z M 17 24 L 17 26 L 19 26 L 19 24 L 17 24 z M 21 24 L 21 26 L 22 26 C 22.554 26 23 25.554 23 25 L 23 24 L 21 24 z "
       transform="translate(0,1020.3622)"
       id="rect3039" />
  </g>
</svg>

<!-- Created with Inkscape (http://www.inkscape.org/) -->
<svg xmlns="http://www.w3.org/2000/svg" viewBox="0 0 32 32">
 <defs>
  <radialGradient id="radialGradient3031" gradientUnits="userSpaceOnUse" gradientTransform="matrix(1,0,0,0.10447761,0,50.597015)" cx="32.5" cy="56.5" r="33.5">
   <stop style="stop-color:#000;stop-opacity:1"/>
   <stop offset="1" style="stop-color:#000;stop-opacity:0"/>
  </radialGradient>
 </defs>
 <g transform="translate(0,-1020.3622)">
  <path d="m 66 56.5 c 0 1.933 -14.998 3.5 -33.5 3.5 -18.502 0 -33.5 -1.567 -33.5 -3.5 0 -1.933 14.998 -3.5 33.5 -3.5 18.502 0 33.5 1.567 33.5 3.5 z" transform="matrix(0.71641791,0,0,0.85714286,-7.2835821,999.9336)" style="fill:url(#radialGradient3031);opacity:0.3;fill-opacity:1;stroke:none"/>
  <path d="m 0 1024.89 0 21.412 32 0 0 -10.706 -1.524 -9.177 -11.976 -0.059 -1.5 -3 -15.476 0 c -0.762 0 -1.524 0.765 -1.524 1.529 z" style="fill:#d32f2f;fill-opacity:1;stroke:none"/>
  <rect width="15.786" height="5.941" x="2.5" y="1027.36" style="fill:#fffdf0;fill-opacity:1;stroke:none"/>
  <path d="m 1.531 1023.36 c -0.762 0 -1.531 0.767 -1.531 1.531 l 0 1 c 0 -0.765 0.769 -1.531 1.531 -1.531 l 14.969 0 1.5 3 12.469 0.062 1.531 9.172 0 -1 -1.531 -9.172 -11.969 -0.062 -1.5 -3 z" style="fill:#000;opacity:0.03;fill-opacity:1;stroke:none"/>
  <path d="m 32 1027.95 0 21.412 -32 0 0 -20 15 0 1.5 -3 13.976 0.059 c 0.762 0 1.524 0.765 1.524 1.53 z" style="fill:#ef5350;fill-opacity:1;stroke:none"/>
  <path d="m 0 1048.36 0 1 32 0 0 -1 z" style="fill:#000;opacity:0.15;fill-opacity:1;stroke:none"/>
  <path d="m 16.5 1026.36 -1.5 3 -15 0 0 1 15.5 0 1.5 -3 13.469 0.062 c 0.762 0 1.531 0.767 1.531 1.531 l 0 -1 c 0 -0.765 -0.769 -1.531 -1.531 -1.531 z" style="fill:#000;opacity:0.03;fill-opacity:1;stroke:none"/>
  <path d="m 10 12 c -0.554 0 -1 0.446 -1 1 l 0 1 l 2 0 l 0 -2 l -1 0 z m 3 0 l 0 2 l 2 0 l 0 -2 l -2 0 z m 4 0 l 0 2 l 2 0 l 0 -2 l -2 0 z m 4 0 l 0 2 l 2 0 l 0 -1 c 0 -0.554 -0.446 -1 -1 -1 l -1 0 z m -12 4 l 0 2 l 2 0 l 0 -2 l -2 0 z m 12 0 l 0 2 l 2 0 l 0 -2 l -2 0 z m -12 4 l 0 2 l 2 0 l 0 -2 l -2 0 z m 12 0 l 0 2 l 2 0 l 0 -2 l -2 0 z m -12 4 l 0 1 c 0 0.554 0.446 1 1 1 l 1 0 l 0 -2 l -2 0 z m 4 0 l 0 2 l 2 0 l 0 -2 l -2 0 z m 4 0 l 0 2 l 2 0 l 0 -2 l -2 0 z m 4 0 l 0 2 l 1 0 c 0.554 0 1 -0.446 1 -1 l 0 -1 l -2 0 z" transform="translate(0,1020.3622)" style="fill:#ab3634;opacity:0.5;fill-opacity:1;stroke:none"/>
 </g>
</svg>
